images/src/sort--asc.svg

<svg height="12" viewBox="0 0 10 12" width="14" xmlns="http://www.w3.org/2000/svg"><path d="m5 .43945312-4.28125 4.27929688 1.0625 1.0625 2.46875-2.46875v7.9375h1.5v-7.9375l2.46875 2.46875 1.0625-1.0625z" fill="#004adc"/></svg>

<svg
  xmlns='http://www.w3.org/2000/svg'
  width='14'
  height='12'
  viewBox='0 0 10 12'>
  <path
    d='M 5 0.43945312 L 0.71875 4.71875 L 1.78125 5.78125 L 4.25 3.3125 L 4.25 11.25 L 5.75 11.25 L 5.75 3.3125 L 8.21875 5.78125 L 9.28125 4.71875 L 5 0.43945312 z'
    fill='#004adc'/>
</svg>
